build/images/icons-category/icon-personal.svg

<svg width="34" height="32" viewBox="0 0 34 32" fill="none" xmlns="http://www.w3.org/2000/svg">
<path d="M20.0499 1.23077H16.4069C16.2458 1.23077 16.0914 1.16593 15.9775 1.05053C15.8637 0.935119 15.7997 0.778594 15.7997 0.615384C15.7997 0.452174 15.8637 0.295649 15.9775 0.180242C16.0914 0.064835 16.2458 0 16.4069 0H20.0499C20.2109 0 20.3653 0.064835 20.4792 0.180242C20.5931 0.295649 20.657 0.452174 20.657 0.615384C20.657 0.778594 20.5931 0.935119 20.4792 1.05053C20.3653 1.16593 20.2109 1.23077 20.0499 1.23077ZM27.6522 18.3957L27.6637 18.384L28.8021 17.9994L29.3176 20.4258L28.164 20.8148L27.6522 18.3957ZM29.5751 21.6357L30.9667 28.1846C30.975 28.2251 30.979 28.2663 30.9788 28.3077C30.9788 28.4709 30.9149 28.6274 30.801 28.7428C30.6871 28.8582 30.5327 28.9231 30.3717 28.9231C30.221 28.9229 30.0759 28.8654 29.9651 28.7619C29.8543 28.6584 29.7859 28.5165 29.7736 28.3643C29.7685 28.3128 29.7571 28.2621 29.7396 28.2135L28.4239 22.0246L29.5751 21.6357ZM25.8865 4.28184L28.5447 16.7914L27.3911 17.1809L24.688 4.45169L25.8865 4.28184ZM3.65642 32C3.01638 32.0024 2.38701 31.8338 1.83169 31.5113C1.27636 31.1887 0.814678 30.7236 0.493122 30.1627C0.171566 29.6018 0.00148696 28.9649 9.70594e-06 28.3162C-0.00146754 27.6675 0.165709 27.0299 0.484707 26.4675C0.803705 25.9051 1.26327 25.4378 1.81712 25.1126C2.37097 24.7875 2.99956 24.616 3.63961 24.6154C4.27965 24.6148 4.90856 24.7851 5.463 25.1092C6.01745 25.4333 6.47786 25.8997 6.79789 26.4615H3.65642C3.17333 26.4615 2.71003 26.656 2.36843 27.0022C2.02684 27.3485 1.83493 27.818 1.83493 28.3077C1.83493 28.7973 2.02684 29.2669 2.36843 29.6131C2.71003 29.9593 3.17333 30.1538 3.65642 30.1538H6.79789C6.47786 30.7118 6.01977 31.1756 5.46885 31.4994C4.91793 31.8231 4.29324 31.9957 3.65642 32ZM20.6425 28.9231H3.65642C3.49539 28.9231 3.34096 28.8582 3.22709 28.7428C3.11323 28.6274 3.04926 28.4709 3.04926 28.3077C3.04926 28.1445 3.11323 27.9879 3.22709 27.8725C3.34096 27.7571 3.49539 27.6923 3.65642 27.6923H21.8714C21.8671 28.0199 21.7357 28.3327 21.5058 28.5629C21.2758 28.7932 20.9657 28.9226 20.6425 28.9231ZM22.2272 26.4615H19.6941L26.6303 19.4314L27.0796 21.5434L22.2272 26.4615ZM30.3717 32C29.6352 32.0012 28.9157 31.7758 28.3083 31.3536C27.701 30.9314 27.2344 30.3322 26.9704 29.6353C26.7063 28.9385 26.6573 28.1768 26.8296 27.4511C27.002 26.7254 27.3877 26.0698 27.9357 25.5711L28.569 28.5538L28.5763 28.5827C28.6442 29.0429 28.8814 29.4601 29.2403 29.7504C29.5991 30.0406 30.0529 30.1826 30.5108 30.1478C30.9686 30.113 31.3965 29.9039 31.7085 29.5626C32.0206 29.2213 32.1937 28.773 32.1932 28.3077C32.1933 28.1821 32.1805 28.0569 32.1549 27.9341V27.9298L31.487 24.7975C32.3101 25.0697 33.0106 25.6301 33.463 26.3782C33.9154 27.1264 34.0902 28.0133 33.9559 28.8802C33.8217 29.7471 33.3872 30.5372 32.7304 31.1088C32.0736 31.6805 31.2374 31.9964 30.3717 32Z" fill="#025BB1"/>
<path d="M24.3182 3.22584L23.8258 1.23077H21.8714V0H24.3C24.4355 3.79218e-05 24.567 0.04597 24.6737 0.130492C24.7804 0.215014 24.8562 0.333272 24.889 0.466461L25.4961 2.928L24.3182 3.22584Z" fill="#025BB1"/>
</svg>

<svg width="34" height="32" fill="none" xmlns="http://www.w3.org/2000/svg"><path d="M20.05 1.23h-3.643a.603.603 0 01-.43-.18.62.62 0 010-.87.603.603 0 01.43-.18h3.643a.61.61 0 01.43.18.62.62 0 010 .87.603.603 0 01-.43.18zm7.602 17.166l.012-.012 1.138-.385.516 2.427-1.154.389-.512-2.42zm1.923 3.24l1.392 6.549a.62.62 0 01-.166.558.597.597 0 01-.836.02.611.611 0 01-.191-.399.628.628 0 00-.034-.15l-1.316-6.19 1.151-.388zM25.887 4.282l2.658 12.51-1.154.389-2.703-12.73 1.199-.17zM3.657 32a3.606 3.606 0 01-1.825-.489 3.668 3.668 0 01-1.339-1.348 3.73 3.73 0 01-.008-3.695 3.669 3.669 0 011.332-1.355 3.606 3.606 0 013.646-.004c.554.324 1.015.79 1.335 1.352H3.656a1.81 1.81 0 00-1.288.541 1.86 1.86 0 00-.533 1.306c0 .49.192.959.533 1.305.342.346.805.54 1.288.54h3.142a3.687 3.687 0 01-1.33 1.346A3.625 3.625 0 013.657 32zm16.985-3.077H3.656a.603.603 0 01-.429-.18.62.62 0 010-.87.603.603 0 01.43-.18H21.87c-.004.327-.135.64-.365.87-.23.23-.54.36-.864.36zm1.585-2.461h-2.533l6.936-7.03.45 2.111-4.853 4.919zM30.372 32a3.604 3.604 0 01-2.064-.646 3.678 3.678 0 01-1.338-1.719 3.733 3.733 0 01-.14-2.184 3.696 3.696 0 011.106-1.88l.633 2.983.007.029c.068.46.305.877.664 1.167a1.802 1.802 0 002.469-.187 1.857 1.857 0 00.446-1.629v-.004l-.668-3.133a3.652 3.652 0 011.976 1.581c.452.748.627 1.635.493 2.502a3.705 3.705 0 01-1.226 2.229 3.615 3.615 0 01-2.358.891zM24.318 3.226l-.492-1.995H21.87V0h2.43c.136 0 .267.046.374.13a.616.616 0 01.215.336l.607 2.462-1.178.298z" fill="#025BB1"/></svg>
